X:240
T: TREU UND HERZINNIGLICH ROBIN ADAIR
N: B0727
O: Europa, Mitteleuropa, Deutschland; Irland
R: Liebes - Lied
M: 3/4
L: 1/16
K: Bb
 | F4G4A4 | B6c2d4
FB3GB3Ac3 | B8z4
F4G4A4 | B6c2d4
FB3GB3Ac3 | B8z4
d4d4d4 | e6G2G4
F4d6c2 | B6G2F4
f4e2d2c2B2 | B6c2d4
FB3GB3Ac3 | B8z4

